dist/img/svg/icon-vk.svg

<svg width="30" height="30" viewBox="0 0 30 30" fill="none" xmlns="http://www.w3.org/2000/svg">
<circle cx="15" cy="15" r="15" fill="#006A6A"/>
<path fill-rule="evenodd" clip-rule="evenodd" d="M22.1043 16.8088C22.1043 16.8088 23.499 18.0659 23.844 18.6475C23.8507 18.6559 23.8559 18.6652 23.8595 18.6751C24.0001 18.89 24.0346 19.0584 23.9656 19.1828C23.8492 19.3882 23.455 19.4913 23.3213 19.5H20.8563C20.6846 19.5 20.3276 19.4591 19.8929 19.1851C19.5608 18.9734 19.2305 18.6247 18.9105 18.2839C18.4327 17.7778 18.0195 17.3386 17.6012 17.3386C17.5484 17.3384 17.4959 17.3464 17.446 17.3622C17.1294 17.4535 16.7275 17.8651 16.7275 18.9616C16.7275 19.3048 16.4308 19.5 16.2229 19.5H15.0939C14.7092 19.5 12.7065 19.3772 10.9306 17.6684C8.75453 15.5762 6.8001 11.3792 6.78113 11.3422C6.65952 11.0707 6.91482 10.9227 7.19082 10.9227H9.67999C10.0138 10.9227 10.1225 11.1069 10.1984 11.2722C10.2863 11.4619 10.6124 12.2207 11.1471 13.0731C12.0131 14.46 12.5452 15.0244 12.9704 15.0244C13.0503 15.0246 13.1289 15.0056 13.1981 14.9693C13.7536 14.6907 13.6501 12.8803 13.6242 12.5072C13.6242 12.4348 13.6233 11.6988 13.3387 11.343C13.1352 11.088 12.7884 10.9888 12.5789 10.9526C12.6349 10.8786 12.7539 10.7653 12.9066 10.6984C13.287 10.5252 13.9744 10.5 14.6566 10.5H15.0353C15.7753 10.5094 15.9668 10.5527 16.2359 10.6149C16.7775 10.733 16.7879 11.0533 16.7404 12.1443C16.7266 12.456 16.712 12.8071 16.712 13.2203C16.712 13.3085 16.7077 13.4069 16.7077 13.5068C16.6913 14.0665 16.6697 14.697 17.1027 14.9559C17.1588 14.9878 17.2237 15.0048 17.2898 15.0047C17.4399 15.0047 17.8893 15.0047 19.108 13.0959C19.6427 12.2529 20.0567 11.2588 20.0852 11.184C20.1094 11.1423 20.1818 11.025 20.2698 10.9778C20.3324 10.9474 20.4025 10.9322 20.4733 10.9337H23.4015C23.7206 10.9337 23.9371 10.9778 23.9794 11.088C24.0501 11.2667 23.9656 11.8121 22.6287 13.462C22.4036 13.7367 22.2061 13.9744 22.0327 14.1822C20.8209 15.6336 20.8209 15.7068 22.1043 16.8088Z" fill="white"/>
</svg>

<svg width="30" height="30" viewBox="0 0 30 30" fill="none" xmlns="http://www.w3.org/2000/svg"><circle cx="15" cy="15" r="15" fill="#006A6A"/><path fill-rule="evenodd" clip-rule="evenodd" d="M22.104 16.809s1.395 1.257 1.74 1.838a.098.098 0 01.015.028c.141.215.176.383.107.508-.117.205-.511.308-.645.317h-2.465c-.171 0-.528-.04-.963-.315-.332-.212-.663-.56-.983-.901-.477-.506-.89-.945-1.309-.945a.508.508 0 00-.155.023c-.317.091-.719.503-.719 1.6a.538.538 0 01-.504.538h-1.13c-.384 0-2.386-.123-4.162-1.832-2.176-2.092-4.13-6.289-4.15-6.326-.121-.271.134-.42.41-.42H9.68c.334 0 .443.185.518.35.088.19.414.949.95 1.801.865 1.387 1.397 1.951 1.822 1.951.08 0 .159-.018.228-.055.556-.278.452-2.089.426-2.462 0-.072 0-.808-.285-1.164-.204-.255-.55-.354-.76-.39a.881.881 0 01.328-.255c.38-.173 1.067-.198 1.75-.198h.378c.74.01.932.053 1.2.115.543.118.553.438.505 1.53a23.33 23.33 0 00-.028 1.075c0 .088-.004.187-.004.287-.017.56-.038 1.19.395 1.449a.378.378 0 00.187.049c.15 0 .6 0 1.818-1.91a13.67 13.67 0 00.977-1.911.581.581 0 01.185-.206.445.445 0 01.203-.044h2.928c.32 0 .536.044.578.154.071.179-.013.724-1.35 2.374-.225.275-.423.512-.596.72-1.212 1.452-1.212 1.525.071 2.627z" fill="#fff"/></svg>
